upholstery/frontseat_back.blend_page12.svg

<?xml version="1.0" encoding="UTF-8" standalone="no"?>
<svg
   version="1.1"
   width="300.00mm"
   height="600.00mm"
   viewBox="0 0 300.00 600.00"
   id="svg2366"
   sodipodi:docname="frontseat_back.blend_page12.svg"
   inkscape:version="1.1.1 (c3084ef, 2021-09-22)"
   xmlns:inkscape="http://www.inkscape.org/namespaces/inkscape"
   xmlns:sodipodi="http://sodipodi.sourceforge.net/DTD/sodipodi-0.dtd"
   xmlns="http://www.w3.org/2000/svg"
   xmlns:svg="http://www.w3.org/2000/svg">
  <defs
     id="defs2370" />
  <sodipodi:namedview
     id="namedview2368"
     pagecolor="#ffffff"
     bordercolor="#666666"
     borderopacity="1.0"
     inkscape:pageshadow="2"
     inkscape:pageopacity="0.0"
     inkscape:pagecheckerboard="0"
     inkscape:document-units="mm"
     showgrid="false"
     inkscape:zoom="0.34880903"
     inkscape:cx="566.21241"
     inkscape:cy="1133.8583"
     inkscape:window-width="1792"
     inkscape:window-height="975"
     inkscape:window-x="0"
     inkscape:window-y="25"
     inkscape:window-maximized="1"
     inkscape:current-layer="svg2366" />
  <style
     type="text/css"
     id="style2338">
    path {
        fill: none;
        stroke-linecap: butt;
        stroke-linejoin: bevel;
        stroke-dasharray: none;
    }
    path.outer {
        stroke: #000000;
        stroke-dasharray: none;
        stroke-dashoffset: 0;
        stroke-width: 0.3;
        stroke-opacity: 1.0;
    }
    path.convex {
        stroke: #000000;
        stroke-dasharray: 0.50,1.00;
        stroke-dashoffset:0;
        stroke-width:0.2;
        stroke-opacity: 1.0
    }
    path.concave {
        stroke: #000000;
        stroke-dasharray: 1.00,0.50,0.20,0.50;
        stroke-dashoffset: 0;
        stroke-width: 0.2;
        stroke-opacity: 1.0
    }
    path.freestyle {
        stroke: #000000;
        stroke-dasharray: none;
        stroke-dashoffset: 0;
        stroke-width: 0.2;
        stroke-opacity: 1.0
    }
    path.outer_background {
        stroke: #ffffff;
        stroke-opacity: 1.0;
        stroke-width: 0.5
    }
    path.inner_background {
        stroke: #ffffff;
        stroke-opacity: 1.0;
        stroke-width: 0.2
    }
    path.sticker {
        fill: #e5e5e5;
        stroke: none;
        fill-opacity: 1.0;
    }
    path.arrow {
        fill: #000000;
    }
    text {
        font-style: normal;
        fill: #000000;
        fill-opacity: 1.0;
        stroke: none;
    }
    text, tspan {
        text-anchor:middle;
    }
    </style>
  <text
     style="font-size:10px"
     id="text2342"
     x="103.22826"
     y="339.51288"><tspan
       id="tspan2340">[3] I 3</tspan></text>
  <path
     class="sticker"
     d="m 90.452653,252.9692 -7.307909,-5.60817 10.811463,-14.55608 7.480453,5.37586 z m -21.425441,61.63919 -9.394072,-3.43165 21.322296,-61.34242 9.497217,3.13488 z M 22.262846,412.26848 12.367909,413.72266 5,368.53353 l 9.844392,-1.76425 z m 22.881098,-93.76603 -1.454152,-9.89497 23.57316,-3.84351 1.76426,9.84442 z m 56.292716,-80.32164 -7.957067,-6.05884 23.256037,-31.55857 8.14347,5.80591 z M 14.844392,366.76928 5,365.00506 l 4.731707,-29.0214 9.89496,1.45414 z m 4.782275,-29.33148 -5.832955,-8.12411 25.264963,-18.74813 6.085269,7.93689 z m 105.482213,-112.27104 9.9748,-0.7267 1.90833,21.52324 -9.94704,1.03965 z m 12.13133,91.48133 9.89495,-1.45417 12.15885,74.57302 -9.84439,1.76426 z m -10.19524,-69.64514 9.9173,-1.293 10.14973,69.33427 -9.87179,1.60387 z m -2.16587,-40.63364 9.40053,0.0327 0.22617,18.50217 -9.39692,0.26253 z m 27.75566,345.82129 -5.38544,7.47356 -14.87524,-10.36799 5.14804,-7.63906 z m -15.11264,-10.53349 -8.00955,5.98932 -39.703326,-51.39244 7.817477,-6.23792 z m -107.840798,-83.88942 -9.894952,1.45417 -7.367916,-45.18911 9.844392,-1.76427 z m 67.945399,32.24838 1.454159,9.89497 -23.573167,3.84348 -1.764261,-9.84439 z m 87.341169,84.89197 -5.87745,8.09199 -32.07609,-22.53685 5.62041,-8.27258 z m -141.434813,-90.84701 -8.920588,4.52193 -13.705298,-26.01537 8.774131,-4.7999 z m 30.210375,9.8491 -3.248952,9.45881 -29.911675,-9.75174 2.950252,-9.55617 z m 100.370988,41.78077 9.76212,-2.17384 5.02725,21.01472 -9.689,2.47937 z m -24.66482,-144.1597 9.89494,-1.45416 12.15884,74.57302 -9.84439,1.76427 z m 12.20939,74.88313 9.86999,-1.61493 12.39982,68.96731 -9.81438,1.92419 z m 17.5558,90.59682 8.99364,-2.73597 5.66272,17.61577 -8.90328,3.01709 z"
     id="path2344" />
  <path
     class="outer"
     d="m 19.78637,459.22186 -7.367916,-45.18911 9.844392,-1.76427 -9.894937,1.45418 L 5,368.53353 14.844392,366.76928 5,365.00506 l 4.731707,-29.0214 9.89496,1.45414 -5.832955,-8.12411 25.264963,-18.74813 6.085269,7.93689 -1.454152,-9.89497 23.57316,-3.84351 1.76426,9.84442 -9.394072,-3.43165 21.322296,-61.34242 9.497217,3.13488 -7.307909,-5.60817 10.811463,-14.55608 7.480453,5.37586 -7.957067,-6.05884 23.256037,-31.55857 8.14347,5.80591 9.40053,0.0327 0.22617,18.50217 -9.39692,0.26253 9.9748,-0.7267 1.90833,21.52324 -9.94704,1.03965 9.9173,-1.293 10.14973,69.33427 -9.87179,1.60387 9.89495,-1.45417 12.15885,74.57302 -9.84439,1.76426 9.89494,-1.45416 12.15884,74.57302 -9.84439,1.76427 9.86999,-1.61493 12.39982,68.96731 -9.81438,1.92419 9.76212,-2.17384 5.02725,21.01472 -9.689,2.47937 8.99364,-2.73597 5.66272,17.61577 -8.90328,3.01709 -5.87745,8.09199 -32.07609,-22.53685 5.62041,-8.27258 -5.38544,7.47356 -14.87524,-10.36799 5.14804,-7.63906 -8.00955,5.98932 -39.703326,-51.39244 7.817477,-6.23792 1.454159,9.89497 -23.573167,3.84348 -1.764261,-9.84439 -3.248952,9.45881 -29.911675,-9.75174 2.950252,-9.55617 -8.920588,4.52193 -13.705298,-26.01537 8.774131,-4.7999 z"
     id="path2346" />
  <text
     transform="rotate(-53.612871)"
     style="font-size:9px"
     id="text2350"
     x="-111.80791"
     y="221.15718"><tspan
       id="tspan2348">1:1</tspan></text>
  <text
     transform="rotate(89.299656)"
     style="font-size:8.46px"
     id="text2354"
     x="217.27972"
     y="-124.03927"><tspan
       id="tspan2352">2:2</tspan></text>
  <text
     transform="rotate(-144.90787)"
     style="font-size:9px"
     id="text2358"
     x="-462.09854"
     y="-365.86951"><tspan
       id="tspan2356">1:7</tspan></text>
  <text
     transform="rotate(72.179625)"
     style="font-size:8.46px"
     id="text2362"
     x="594.53119"
     y="-1.8436364"><tspan
       id="tspan2360">2:4</tspan></text>
</svg>

<?xml version='1.0' encoding='UTF-8' standalone='no'?>
    <svg xmlns='http://www.w3.org/2000/svg' xmlns:xlink='http://www.w3.org/1999/xlink' version='1.1'
    width='300.00mm' height='600.00mm' viewBox='0 0 300.00 600.00'>
<style type="text/css">
    path {
        fill: none;
        stroke-linecap: butt;
        stroke-linejoin: bevel;
        stroke-dasharray: none;
    }
    path.outer {
        stroke: #000000;
        stroke-dasharray: none;
        stroke-dashoffset: 0;
        stroke-width: 0.3;
        stroke-opacity: 1.0;
    }
    path.convex {
        stroke: #000000;
        stroke-dasharray: 0.50,1.00;
        stroke-dashoffset:0;
        stroke-width:0.2;
        stroke-opacity: 1.0
    }
    path.concave {
        stroke: #000000;
        stroke-dasharray: 1.00,0.50,0.20,0.50;
        stroke-dashoffset: 0;
        stroke-width: 0.2;
        stroke-opacity: 1.0
    }
    path.freestyle {
        stroke: #000000;
        stroke-dasharray: none;
        stroke-dashoffset: 0;
        stroke-width: 0.2;
        stroke-opacity: 1.0
    }
    path.outer_background {
        stroke: #ffffff;
        stroke-opacity: 1.0;
        stroke-width: 0.5
    }
    path.inner_background {
        stroke: #ffffff;
        stroke-opacity: 1.0;
        stroke-width: 0.2
    }
    path.sticker {
        fill: #e5e5e5;
        stroke: none;
        fill-opacity: 1.0;
    }
    path.arrow {
        fill: #000000;
    }
    text {
        font-style: normal;
        fill: #000000;
        fill-opacity: 1.0;
        stroke: none;
    }
    text, tspan {
        text-anchor:middle;
    }
    </style>
<g>
<text transform='translate(99.43558741360903 202.21831370145082)' style='font-size:10.00'><tspan>[3] I 3</tspan></text>
<path class='sticker' d=' M 90.452653 252.969201 L 83.144744 247.361029 L 93.956207 232.804949 L 101.436664 238.180812 Z
M 69.027212 314.608390 L 59.633140 311.176742 L 80.955436 249.834324 L 90.452653 252.969201 Z
M 22.262846 412.268485 L 12.367909 413.722659 L 5.000000 368.533532 L 14.844392 366.769279 Z
M 45.143944 318.502451 L 43.689792 308.607484 L 67.262952 304.763968 L 69.027212 314.608390 Z
M 101.436664 238.180812 L 93.479593 232.121970 L 116.735634 200.563396 L 124.879097 206.369306 Z
M 14.844392 366.769279 L 5.000000 365.005056 L 9.731707 335.983659 L 19.626667 337.437804 Z
M 19.626667 337.437804 L 13.793712 329.313691 L 39.058675 310.565556 L 45.143944 318.502451 Z
M 125.108880 225.166763 L 135.083680 224.440063 L 136.992012 245.963301 L 127.044966 247.002955 Z
M 137.240206 316.648091 L 147.135158 315.193917 L 159.294014 389.766942 L 149.449621 391.531195 Z
M 127.044966 247.002955 L 136.962269 245.709951 L 147.112002 315.044220 L 137.240206 316.648091 Z
M 124.879097 206.369306 L 134.279628 206.402059 L 134.505798 224.904235 L 125.108880 225.166763 Z
M 152.634759 552.190597 L 147.249316 559.664155 L 132.374083 549.296166 L 137.522121 541.657115 Z
M 137.522121 541.657115 L 129.512568 547.646428 L 89.809244 496.253992 L 97.626721 490.016068 Z
M 29.681322 457.767691 L 19.786370 459.221865 L 12.418454 414.032753 L 22.262846 412.268485 Z
M 97.626721 490.016068 L 99.080880 499.911035 L 75.507713 503.754522 L 73.743452 493.910129 Z
M 184.967895 574.908043 L 179.090445 583.000029 L 147.014354 560.463185 L 152.634759 552.190597 Z
M 43.533077 484.061028 L 34.612489 488.582964 L 20.907191 462.567593 L 29.681322 457.767691 Z
M 73.743452 493.910129 L 70.494500 503.368939 L 40.582825 493.617202 L 43.533077 484.061028 Z
M 174.114441 535.690899 L 183.876564 533.517058 L 188.903813 554.531778 L 179.214810 557.011153 Z
M 149.449621 391.531195 L 159.344559 390.077035 L 171.503399 464.650060 L 161.659007 466.414328 Z
M 161.659007 466.414328 L 171.529000 464.799399 L 183.928822 533.766712 L 174.114441 535.690899 Z
M 179.214810 557.011153 L 188.208451 554.275180 L 193.871175 571.890946 L 184.967895 574.908043 Z '/>
<path class='outer' d=' M 19.786370 459.221865 L 12.418454 414.032753 L 22.262846 412.268485 L 12.367909 413.722659 L 5.000000 368.533532 L 14.844392 366.769279 L 5.000000 365.005056 L 9.731707 335.983659 L 19.626667 337.437804 L 13.793712 329.313691 L 39.058675 310.565556 L 45.143944 318.502451 L 43.689792 308.607484 L 67.262952 304.763968 L 69.027212 314.608390 L 59.633140 311.176742 L 80.955436 249.834324 L 90.452653 252.969201 L 83.144744 247.361029 L 93.956207 232.804949 L 101.436664 238.180812 L 93.479593 232.121970 L 116.735634 200.563396 L 124.879097 206.369306 L 134.279628 206.402059 L 134.505798 224.904235 L 125.108880 225.166763 L 135.083680 224.440063 L 136.992012 245.963301 L 127.044966 247.002955 L 136.962269 245.709951 L 147.112002 315.044220 L 137.240206 316.648091 L 147.135158 315.193917 L 159.294014 389.766942 L 149.449621 391.531195 L 159.344559 390.077035 L 171.503399 464.650060 L 161.659007 466.414328 L 171.529000 464.799399 L 183.928822 533.766712 L 174.114441 535.690899 L 183.876564 533.517058 L 188.903813 554.531778 L 179.214810 557.011153 L 188.208451 554.275180 L 193.871175 571.890946 L 184.967895 574.908043 L 179.090445 583.000029 L 147.014354 560.463185 L 152.634759 552.190597 L 147.249316 559.664155 L 132.374083 549.296166 L 137.522121 541.657115 L 129.512568 547.646428 L 89.809244 496.253992 L 97.626721 490.016068 L 99.080880 499.911035 L 75.507713 503.754522 L 73.743452 493.910129 L 70.494500 503.368939 L 40.582825 493.617202 L 43.533077 484.061028 L 34.612489 488.582964 L 20.907191 462.567593 L 29.681322 457.767691 Z '/>
<text transform='matrix(0.593238 -0.805027 0.805027 0.593238 111.708832 221.207227)' style='font-size:9.00'><tspan>1:1</tspan></text>
<text transform='matrix(0.012223 0.999925 -0.999925 0.012223 126.685758 215.747352)' style='font-size:8.46'><tspan>2:2</tspan></text>
<text transform='matrix(-0.818229 -0.574893 0.574893 -0.818229 167.766531 565.022166)' style='font-size:9.00'><tspan>1:7</tspan></text>
<text transform='matrix(0.306034 0.952021 -0.952021 0.306034 183.702056 565.441812)' style='font-size:8.46'><tspan>2:4</tspan></text>
</g>
</svg>
